img/icons/Header/ios-contact-outline.svg

<svg width="35" height="35" viewBox="0 0 35 35" fill="none" xmlns="http://www.w3.org/2000/svg">
<g clip-path="url(#clip0_358_767)">
<path d="M17.6116 4.3728H17.8063C19.6044 4.37937 28.7153 4.44499 31.1719 5.10562C31.9145 5.30723 32.5912 5.70023 33.1344 6.24532C33.6776 6.79041 34.0682 7.46852 34.2672 8.21187C34.4881 9.04312 34.6434 10.1434 34.7484 11.2787L34.7703 11.5062L34.8184 12.075L34.8359 12.3025C34.9781 14.3019 34.9956 16.1744 34.9978 16.5834V16.7475C34.9956 17.1719 34.9759 19.1712 34.8184 21.2537L34.8009 21.4834L34.7812 21.7109C34.6719 22.9622 34.51 24.2047 34.2672 25.1191C34.0688 25.8627 33.6784 26.5411 33.1351 27.0863C32.5919 27.6315 31.9148 28.0243 31.1719 28.2253C28.6344 28.9078 18.9897 28.9559 17.6531 28.9581H17.3425C16.6666 28.9581 13.8709 28.945 10.9397 28.8444L10.5678 28.8312L10.3775 28.8225L10.0034 28.8072L9.62937 28.7919C7.20125 28.6847 4.88906 28.5119 3.82375 28.2231C3.08107 28.0223 2.4042 27.6298 1.86096 27.085C1.31771 26.5403 0.927165 25.8623 0.728438 25.1191C0.485625 24.2069 0.32375 22.9622 0.214375 21.7109L0.196875 21.4812L0.179375 21.2537C0.0714166 19.7715 0.0115935 18.2861 0 16.8L0 16.5309C0.004375 16.0606 0.021875 14.4353 0.14 12.6416L0.155313 12.4162L0.161875 12.3025L0.179375 12.075L0.2275 11.5062L0.249375 11.2787C0.354375 10.1434 0.509687 9.04093 0.730625 8.21187C0.929017 7.46822 1.31942 6.78979 1.86269 6.24461C2.40595 5.69942 3.083 5.30663 3.82594 5.10562C4.89125 4.82124 7.20344 4.64624 9.63156 4.53687L10.0034 4.52155L10.3797 4.50843L10.5678 4.50187L10.9419 4.48655C13.0237 4.41956 15.1064 4.38237 17.1894 4.37499H17.6116V4.3728ZM14 11.3947V21.9341L23.0934 16.6666L14 11.3947Z" fill="#721BE3"/>
</g>
<defs>
<clipPath id="clip0_358_767">
<rect width="35" height="35" fill="white"/>
</clipPath>
</defs>
</svg>

<svg width="35" height="35" fill="none" xmlns="http://www.w3.org/2000/svg"><g clip-path="url(#a)"><path d="M17.612 4.373h.194c1.798.006 10.91.072 13.366.733a4.397 4.397 0 0 1 3.095 3.106c.221.831.376 1.931.481 3.067l.022.227.048.569.018.228c.142 1.999.16 3.871.162 4.28v.165a70.194 70.194 0 0 1-.18 4.506l-.017.23-.02.227c-.11 1.251-.271 2.494-.514 3.408a4.39 4.39 0 0 1-3.095 3.106c-2.538.683-12.182.73-13.519.733h-.31c-.676 0-3.472-.013-6.403-.114l-.372-.013-.19-.008-.375-.016-.374-.015c-2.428-.107-4.74-.28-5.805-.569A4.39 4.39 0 0 1 .728 25.12c-.242-.912-.404-2.157-.514-3.408l-.017-.23-.018-.227A68.685 68.685 0 0 1 0 16.8v-.27c.004-.47.022-2.095.14-3.888l.015-.226.007-.114.017-.227.049-.569.021-.227c.105-1.136.26-2.238.482-3.067a4.39 4.39 0 0 1 3.095-3.106c1.065-.285 3.377-.46 5.806-.57l.371-.014.377-.014.188-.006.374-.015c2.082-.067 4.164-.105 6.247-.112h.423v-.002ZM14 11.395v10.54l9.093-5.268L14 11.395Z" fill="#721BE3"/></g><defs><clipPath id="a"><path fill="#fff" d="M0 0h35v35H0z"/></clipPath></defs></svg>
